Newaita-dark/.DP/22/weather-overcast.svg

<?xml version="1.0" encoding="UTF-8"?>
<svg xmlns="http://www.w3.org/2000/svg" xmlns:xlink="http://www.w3.org/1999/xlink" width="22pt" height="22pt" viewBox="0 0 22 22" version="1.1">
<defs>
<linearGradient id="linear0" gradientUnits="userSpaceOnUse" x1="254" y1="233.5" x2="254" y2="254.666672" gradientTransform="matrix(0.0429729,0,0,0.0429729,0,9.011766)">
<stop offset="0" style="stop-color:rgb(0%,0%,0%);stop-opacity:0.27451;"/>
<stop offset="1" style="stop-color:rgb(0%,0%,0%);stop-opacity:0;"/>
</linearGradient>
<radialGradient id="radial0" gradientUnits="userSpaceOnUse" cx="450.908936" cy="189.579361" fx="450.908936" fy="189.579361" r="21.166656" gradientTransform="matrix(0.000000119742,-0.0537161,-0.0966889,-0.0000000698078,33.793237,43.494392)">
<stop offset="0" style="stop-color:rgb(0%,0%,0%);stop-opacity:0.313725;"/>
<stop offset="0.222222" style="stop-color:rgb(0%,0%,0%);stop-opacity:0.27451;"/>
<stop offset="1" style="stop-color:rgb(0%,0%,0%);stop-opacity:0;"/>
</radialGradient>
<radialGradient id="radial1" gradientUnits="userSpaceOnUse" cx="450.908936" cy="189.579361" fx="450.908936" fy="189.579361" r="21.166656" gradientTransform="matrix(-0.000000119742,0.0537161,0.0966889,0.0000000698078,-13.554819,-5.402541)">
<stop offset="0" style="stop-color:rgb(0%,0%,0%);stop-opacity:0.313725;"/>
<stop offset="0.222222" style="stop-color:rgb(0%,0%,0%);stop-opacity:0.27451;"/>
<stop offset="1" style="stop-color:rgb(0%,0%,0%);stop-opacity:0;"/>
</radialGradient>
<radialGradient id="radial2" gradientUnits="userSpaceOnUse" cx="450.908936" cy="189.579361" fx="450.908936" fy="189.579361" r="21.166656" gradientTransform="matrix(-0.000000119742,-0.0537161,0.0966889,-0.0000000698078,-13.554819,43.494392)">
<stop offset="0" style="stop-color:rgb(0%,0%,0%);stop-opacity:0.313725;"/>
<stop offset="0.222222" style="stop-color:rgb(0%,0%,0%);stop-opacity:0.27451;"/>
<stop offset="1" style="stop-color:rgb(0%,0%,0%);stop-opacity:0;"/>
</radialGradient>
<radialGradient id="radial3" gradientUnits="userSpaceOnUse" cx="450.908936" cy="189.579361" fx="450.908936" fy="189.579361" r="21.166656" gradientTransform="matrix(0.000000119742,0.0537161,-0.0966889,0.0000000698078,33.793235,-5.402541)">
<stop offset="0" style="stop-color:rgb(0%,0%,0%);stop-opacity:0.313725;"/>
<stop offset="0.222222" style="stop-color:rgb(0%,0%,0%);stop-opacity:0.27451;"/>
<stop offset="1" style="stop-color:rgb(0%,0%,0%);stop-opacity:0;"/>
</radialGradient>
<linearGradient id="linear1" gradientUnits="userSpaceOnUse" x1="211.666672" y1="-20.499998" x2="211.666672" y2="-168.666656" gradientTransform="matrix(0.0429729,0,0,0.0429729,-0.107437,9.210206)">
<stop offset="0" style="stop-color:rgb(56.470588%,64.313725%,68.235294%);stop-opacity:1;"/>
<stop offset="1" style="stop-color:rgb(69.019608%,74.509804%,77.254902%);stop-opacity:1;"/>
</linearGradient>
<linearGradient id="linear2" gradientUnits="userSpaceOnUse" x1="960" y1="1695.118164" x2="960" y2="815.118103" gradientTransform="matrix(0.0113699,0,0,0.0113699,0,0)">
<stop offset="0" style="stop-color:rgb(56.470588%,64.313725%,68.235294%);stop-opacity:1;"/>
<stop offset="1" style="stop-color:rgb(69.019608%,74.509804%,77.254902%);stop-opacity:1;"/>
</linearGradient>
</defs>
<g id="surface1">
<path style=" stroke:none;fill-rule:nonzero;fill:url(#linear0);" d="M 4.546875 19.046875 L 15.691406 19.046875 L 15.691406 19.957031 L 4.546875 19.957031 Z M 4.546875 19.046875 "/>
<path style=" stroke:none;fill-rule:nonzero;fill:url(#radial0);" d="M 15.691406 19.046875 L 17.507812 19.046875 L 17.507812 18.136719 L 15.691406 18.136719 Z M 15.691406 19.046875 "/>
<path style=" stroke:none;fill-rule:nonzero;fill:url(#radial1);" d="M 4.546875 19.046875 L 2.730469 19.046875 L 2.730469 19.957031 L 4.546875 19.957031 Z M 4.546875 19.046875 "/>
<path style=" stroke:none;fill-rule:nonzero;fill:url(#radial2);" d="M 4.546875 19.046875 L 2.730469 19.046875 L 2.730469 18.136719 L 4.546875 18.136719 Z M 4.546875 19.046875 "/>
<path style=" stroke:none;fill-rule:nonzero;fill:url(#radial3);" d="M 15.691406 19.046875 L 17.507812 19.046875 L 17.507812 19.957031 L 15.691406 19.957031 Z M 15.691406 19.046875 "/>
<path style=" stroke:none;fill-rule:nonzero;fill:url(#linear1);" d="M 11.960938 1.960938 C 10.859375 1.960938 9.894531 2.511719 9.324219 3.355469 C 8.847656 3.050781 8.265625 2.871094 7.636719 2.871094 C 6.234375 2.871094 5.0625 3.769531 4.757812 4.980469 C 4.476562 4.796875 4.136719 4.691406 3.773438 4.691406 C 2.765625 4.691406 1.953125 5.503906 1.953125 6.511719 C 1.953125 7.519531 2.765625 8.328125 3.773438 8.328125 L 11.960938 8.328125 C 13.722656 8.328125 15.144531 6.910156 15.144531 5.144531 C 15.144531 3.382812 13.722656 1.960938 11.960938 1.960938 Z M 5.378906 7.363281 C 5.398438 7.382812 5.414062 7.402344 5.433594 7.417969 L 5.351562 7.417969 C 5.359375 7.402344 5.371094 7.382812 5.378906 7.363281 Z M 5.378906 7.363281 "/>
<path style=" stroke:none;fill-rule:nonzero;fill:url(#linear2);" d="M 15.007812 9.269531 C 13.007812 9.269531 11.289062 10.429688 10.488281 12.117188 C 10.1875 12.039062 9.875 11.996094 9.550781 11.996094 C 7.996094 11.996094 6.671875 12.964844 6.152344 14.332031 C 5.703125 14.007812 5.148438 13.816406 4.546875 13.816406 C 3.035156 13.816406 1.820312 15.03125 1.820312 16.542969 C 1.820312 18.054688 3.035156 19.273438 4.546875 19.273438 C 4.660156 19.273438 4.769531 19.265625 4.878906 19.253906 C 4.917969 19.265625 4.960938 19.273438 5.003906 19.273438 L 15.007812 19.273438 C 17.78125 19.273438 20.011719 17.042969 20.011719 14.269531 C 20.011719 11.5 17.78125 9.269531 15.007812 9.269531 Z M 15.007812 9.269531 "/>
<path style=" stroke:none;fill-rule:nonzero;fill:rgb(100%,100%,100%);fill-opacity:0.392157;" d="M 15.007812 9.269531 C 13.007812 9.269531 11.289062 10.429688 10.488281 12.117188 C 10.1875 12.039062 9.875 11.996094 9.550781 11.996094 C 7.996094 11.996094 6.671875 12.964844 6.152344 14.332031 C 5.703125 14.007812 5.148438 13.816406 4.546875 13.816406 C 3.035156 13.816406 1.820312 15.03125 1.820312 16.542969 C 1.820312 16.582031 1.820312 16.621094 1.820312 16.660156 C 1.882812 15.199219 3.074219 14.042969 4.546875 14.042969 C 5.148438 14.042969 5.703125 14.234375 6.152344 14.5625 C 6.671875 13.191406 7.996094 12.222656 9.550781 12.222656 C 9.875 12.222656 10.1875 12.265625 10.488281 12.34375 C 11.289062 10.65625 13.007812 9.496094 15.007812 9.496094 C 17.742188 9.496094 19.949219 11.664062 20.007812 14.382812 C 20.011719 14.347656 20.011719 14.308594 20.011719 14.269531 C 20.011719 11.5 17.78125 9.269531 15.007812 9.269531 Z M 15.007812 9.269531 "/>
<path style=" stroke:none;fill-rule:nonzero;fill:rgb(0%,0%,0%);fill-opacity:0.235294;" d="M 20.011719 14.167969 C 19.953125 16.890625 17.746094 19.066406 15.007812 19.066406 L 5.003906 19.066406 C 4.960938 19.066406 4.917969 19.058594 4.878906 19.046875 C 4.769531 19.058594 4.660156 19.066406 4.546875 19.066406 C 3.070312 19.066406 1.875 17.902344 1.820312 16.441406 C 1.820312 16.476562 1.820312 16.511719 1.820312 16.542969 C 1.820312 18.054688 3.035156 19.273438 4.546875 19.273438 C 4.660156 19.273438 4.769531 19.265625 4.878906 19.253906 C 4.917969 19.265625 4.960938 19.273438 5.003906 19.273438 L 15.007812 19.273438 C 17.78125 19.273438 20.011719 17.042969 20.011719 14.269531 C 20.011719 14.234375 20.011719 14.203125 20.011719 14.167969 Z M 20.011719 14.167969 "/>
<path style="fill:none;stroke-width:11.338583;stroke-linecap:round;stroke-linejoin:miter;stroke:rgb(12.941177%,12.941177%,12.941177%);stroke-opacity:1;stroke-miterlimit:4;" d="M 1319.959918 815.269361 C 1144.056878 815.269361 992.890204 917.306866 922.460276 1065.725056 C 896.006108 1058.853844 868.521258 1055.074677 840.005726 1055.074677 C 703.268598 1055.074677 586.801546 1140.277711 541.107983 1260.52393 C 501.598511 1232.008398 452.812903 1215.173928 399.904566 1215.173928 C 266.946605 1215.173928 160.099251 1322.021282 160.099251 1454.979243 C 160.099251 1587.937205 266.946605 1695.128119 399.904566 1695.128119 C 409.867825 1695.128119 419.487522 1694.440998 429.10722 1693.410316 C 432.542826 1694.440998 436.321993 1695.128119 440.101159 1695.128119 L 1319.959918 1695.128119 C 1563.887961 1695.128119 1760.061077 1498.955003 1760.061077 1255.02696 C 1760.061077 1011.442477 1563.887961 815.269361 1319.959918 815.269361 Z M 1319.959918 815.269361 " transform="matrix(0.0113699,0,0,0.0113699,0,0)"/>
<path style=" stroke:none;fill-rule:nonzero;fill:rgb(100%,100%,100%);fill-opacity:0.392157;" d="M 12.066406 1.960938 C 10.96875 1.960938 10.003906 2.511719 9.429688 3.355469 C 8.953125 3.050781 8.375 2.871094 7.746094 2.871094 C 6.339844 2.871094 5.167969 3.769531 4.867188 4.980469 C 4.582031 4.796875 4.246094 4.691406 3.878906 4.691406 C 2.871094 4.691406 2.0625 5.503906 2.0625 6.511719 C 2.0625 6.546875 2.0625 6.585938 2.066406 6.625 C 2.125 5.667969 2.910156 4.917969 3.878906 4.917969 C 4.246094 4.917969 4.582031 5.023438 4.867188 5.207031 C 5.167969 3.996094 6.339844 3.097656 7.746094 3.097656 C 8.375 3.097656 8.953125 3.277344 9.429688 3.582031 C 10.003906 2.742188 10.96875 2.191406 12.066406 2.191406 C 13.792969 2.191406 15.1875 3.546875 15.246094 5.257812 C 15.25 5.222656 15.25 5.183594 15.25 5.144531 C 15.25 3.382812 13.832031 1.960938 12.066406 1.960938 Z M 5.488281 7.59375 C 5.476562 7.609375 5.46875 7.628906 5.457031 7.648438 L 5.539062 7.648438 C 5.523438 7.628906 5.503906 7.609375 5.488281 7.59375 Z M 5.488281 7.59375 "/>
<path style=" stroke:none;fill-rule:nonzero;fill:rgb(0%,0%,0%);fill-opacity:0.235294;" d="M 15.140625 5.046875 C 15.089844 6.765625 13.691406 8.128906 11.960938 8.128906 L 3.773438 8.128906 C 2.796875 8.128906 2.007812 7.371094 1.957031 6.410156 C 1.953125 6.445312 1.953125 6.476562 1.953125 6.511719 C 1.953125 7.519531 2.765625 8.328125 3.773438 8.328125 L 11.960938 8.328125 C 13.722656 8.328125 15.144531 6.910156 15.144531 5.144531 C 15.144531 5.113281 15.140625 5.078125 15.140625 5.046875 Z M 5.378906 7.167969 C 5.371094 7.183594 5.359375 7.203125 5.351562 7.222656 L 5.433594 7.222656 C 5.414062 7.203125 5.398438 7.183594 5.378906 7.167969 Z M 5.378906 7.167969 "/>
<path style="fill:none;stroke-width:3;stroke-linecap:square;stroke-linejoin:round;stroke:rgb(12.941177%,12.941177%,12.941177%);stroke-opacity:1;stroke-miterlimit:4;" d="M 278.337057 -169.367994 C 252.703141 -169.367994 230.250739 -156.551036 216.97928 -136.916548 C 205.889429 -144.00678 192.345268 -148.188198 177.710302 -148.188198 C 145.077055 -148.188198 117.806932 -127.281104 110.7167 -99.101977 C 104.17187 -103.374296 96.263535 -105.828607 87.809796 -105.828607 C 64.357491 -105.828607 45.450205 -86.921322 45.450205 -63.469016 C 45.450205 -40.01671 64.357491 -21.200325 87.809796 -21.200325 L 278.337057 -21.200325 C 319.333142 -21.200325 352.420891 -54.197174 352.420891 -95.28416 C 352.420891 -136.280245 319.333142 -169.367994 278.337057 -169.367994 Z M 125.169865 -43.652726 C 125.624367 -43.198224 125.987969 -42.743722 126.442471 -42.380121 L 124.533562 -42.380121 C 124.715363 -42.743722 124.988064 -43.198224 125.169865 -43.652726 Z M 125.169865 -43.652726 " transform="matrix(0.0429729,0,0,0.0429729,0,9.239163)"/>
</g>
</svg>

<svg xmlns="http://www.w3.org/2000/svg" width="22pt" height="22pt" viewBox="0 0 22 22"><defs><linearGradient id="a" gradientUnits="userSpaceOnUse" x1="254" y1="233.5" x2="254" y2="254.667" gradientTransform="matrix(.04297 0 0 .04297 0 9.012)"><stop offset="0" stop-opacity=".275"/><stop offset="1" stop-opacity="0"/></linearGradient><radialGradient id="b" gradientUnits="userSpaceOnUse" cx="450.909" cy="189.579" fx="450.909" fy="189.579" r="21.167" gradientTransform="matrix(0 -.05372 -.09669 0 33.793 43.494)"><stop offset="0" stop-opacity=".314"/><stop offset=".222" stop-opacity=".275"/><stop offset="1" stop-opacity="0"/></radialGradient><radialGradient id="c" gradientUnits="userSpaceOnUse" cx="450.909" cy="189.579" fx="450.909" fy="189.579" r="21.167" gradientTransform="matrix(0 .05372 .09669 0 -13.555 -5.403)"><stop offset="0" stop-opacity=".314"/><stop offset=".222" stop-opacity=".275"/><stop offset="1" stop-opacity="0"/></radialGradient><radialGradient id="d" gradientUnits="userSpaceOnUse" cx="450.909" cy="189.579" fx="450.909" fy="189.579" r="21.167" gradientTransform="matrix(0 -.05372 .09669 0 -13.555 43.494)"><stop offset="0" stop-opacity=".314"/><stop offset=".222" stop-opacity=".275"/><stop offset="1" stop-opacity="0"/></radialGradient><radialGradient id="e" gradientUnits="userSpaceOnUse" cx="450.909" cy="189.579" fx="450.909" fy="189.579" r="21.167" gradientTransform="matrix(0 .05372 -.09669 0 33.793 -5.403)"><stop offset="0" stop-opacity=".314"/><stop offset=".222" stop-opacity=".275"/><stop offset="1" stop-opacity="0"/></radialGradient><linearGradient id="f" gradientUnits="userSpaceOnUse" x1="211.667" y1="-20.5" x2="211.667" y2="-168.667" gradientTransform="matrix(.04297 0 0 .04297 -.107 9.21)"><stop offset="0" stop-color="#90a4ae"/><stop offset="1" stop-color="#b0bec5"/></linearGradient><linearGradient id="g" gradientUnits="userSpaceOnUse" x1="960" y1="1695.118" x2="960" y2="815.118" gradientTransform="rotate(.24) scale(.01137)"><stop offset="0" stop-color="#90a4ae"/><stop offset="1" stop-color="#b0bec5"/></linearGradient></defs><path d="M4.547 19.047H15.69v.91H4.547zm0 0" fill="url(#a)"/><path d="M15.691 19.047h1.817v-.91H15.69zm0 0" fill="url(#b)"/><path d="M4.547 19.047H2.73v.91h1.817zm0 0" fill="url(#c)"/><path d="M4.547 19.047H2.73v-.91h1.817zm0 0" fill="url(#d)"/><path d="M15.691 19.047h1.817v.91H15.69zm0 0" fill="url(#e)"/><path d="M11.96 1.96c-1.1 0-2.065.552-2.636 1.395a3.129 3.129 0 0 0-1.687-.484c-1.403 0-2.574.899-2.88 2.11a1.797 1.797 0 0 0-.984-.29c-1.007 0-1.82.813-1.82 1.82 0 1.009.813 1.817 1.82 1.817h8.188a3.177 3.177 0 0 0 3.184-3.183A3.18 3.18 0 0 0 11.96 1.96zM5.38 7.364c.02.02.035.04.055.055h-.082c.007-.016.02-.035.027-.055zm0 0" fill="url(#f)"/><path d="M15.008 9.27c-2 0-3.719 1.16-4.52 2.847a3.715 3.715 0 0 0-.937-.12 3.63 3.63 0 0 0-3.399 2.335 2.733 2.733 0 0 0-1.605-.516 2.72 2.72 0 0 0-2.727 2.727 2.722 2.722 0 0 0 3.059 2.71.44.44 0 0 0 .125.02h10.004a4.991 4.991 0 0 0 5.004-5.003c0-2.77-2.23-5-5.004-5zm0 0" fill="url(#g)"/><path d="M15.008 9.27c-2 0-3.719 1.16-4.52 2.847a3.715 3.715 0 0 0-.937-.12 3.63 3.63 0 0 0-3.399 2.335 2.733 2.733 0 0 0-1.605-.516 2.72 2.72 0 0 0-2.727 2.727v.117a2.726 2.726 0 0 1 2.727-2.617 2.71 2.71 0 0 1 1.605.52 3.628 3.628 0 0 1 3.399-2.34c.324 0 .636.043.937.12a4.988 4.988 0 0 1 4.52-2.847 4.987 4.987 0 0 1 5 4.887c.004-.035.004-.074.004-.113 0-2.77-2.23-5-5.004-5zm0 0" fill="#fff" fill-opacity=".392"/><path d="M20.012 14.168a4.995 4.995 0 0 1-5.004 4.898H5.004a.44.44 0 0 1-.125-.02 2.724 2.724 0 0 1-3.059-2.605v.102a2.722 2.722 0 0 0 3.059 2.71.44.44 0 0 0 .125.02h10.004a4.991 4.991 0 0 0 5.004-5.003v-.102zm0 0" fill-opacity=".235"/><path d="M15.008 9.27c-2 0-3.719 1.16-4.52 2.847a3.716 3.716 0 0 0-.937-.12 3.63 3.63 0 0 0-3.399 2.335 2.733 2.733 0 0 0-1.605-.516 2.72 2.72 0 0 0-2.727 2.727 2.722 2.722 0 0 0 3.059 2.71.44.44 0 0 0 .125.02h10.004a4.991 4.991 0 0 0 5.004-5.003c0-2.77-2.23-5-5.004-5zm0 0" fill="none" stroke-width=".12892443" stroke-linecap="round" stroke="#212121"/><path d="M12.066 1.96c-1.097 0-2.062.552-2.636 1.395a3.115 3.115 0 0 0-1.684-.484c-1.406 0-2.578.899-2.879 2.11a1.81 1.81 0 0 0-.988-.29 1.814 1.814 0 0 0-1.813 1.934A1.812 1.812 0 0 1 3.88 4.918c.367 0 .703.105.988.289.301-1.21 1.473-2.11 2.88-2.11.628 0 1.206.18 1.683.485a3.185 3.185 0 0 1 2.636-1.39 3.17 3.17 0 0 1 3.18 3.066c.004-.035.004-.074.004-.113a3.177 3.177 0 0 0-3.184-3.184zM5.488 7.595c-.011.015-.02.035-.031.054h.082c-.016-.02-.035-.039-.05-.054zm0 0" fill="#fff" fill-opacity=".392"/><path d="M15.14 5.047a3.17 3.17 0 0 1-3.18 3.082H3.774A1.812 1.812 0 0 1 1.957 6.41c-.004.035-.004.067-.004.102 0 1.008.813 1.816 1.82 1.816h8.188a3.177 3.177 0 0 0 3.184-3.183c0-.032-.004-.067-.004-.098zM5.38 7.168c-.008.016-.02.035-.027.055h.082c-.02-.02-.036-.04-.055-.055zm0 0" fill-opacity=".235"/><path d="M11.961 1.96c-1.102 0-2.066.552-2.637 1.395a3.129 3.129 0 0 0-1.687-.484c-1.403 0-2.574.899-2.88 2.11a1.797 1.797 0 0 0-.984-.29c-1.007 0-1.82.813-1.82 1.82 0 1.009.813 1.817 1.82 1.817h8.188a3.177 3.177 0 0 0 3.184-3.183A3.18 3.18 0 0 0 11.96 1.96zM5.379 7.364c.02.02.035.04.055.055h-.082c.007-.016.02-.035.027-.055zm0 0" fill="none" stroke-width=".12891" stroke-linecap="square" stroke-linejoin="round" stroke="#212121"/></svg>
